X: 1
T: Goodnight And Joy Be With You
M: 4/4
L: 1/8
R: reel
K: Gmaj
BA|:G4  D3 G|E2 E2 e3 d|Bded Bded|B2 A2 A2 BA|
G4 D3 G|E2 E2 e3 d|Bded B2 A2|1 G4 G2 BA:|2 G4 G2 B2||
|:ABAG E2 GE|DEGA B2 AG|A3 B cBcd|e2 A2 A3 B|
cBcd e3 c|BABc d2 cB|ABcd B2 AB|1 G2 E2 E2 B2:|2 G2 E2 E2||
